packages/core/src/svgs/data.svg

<svg width="24" height="24" viewBox="0 0 24 24" fill="none" xmlns="http://www.w3.org/2000/svg">
<g clip-path="url(#clip0_31_9013)">
<path d="M0 0H24V24H0V0Z" fill="#E9570F"/>
<path d="M9.42864 10.2859C9.42864 7.91892 11.3474 6.00021 13.7144 6.00021V5.14307C10.8742 5.14307 8.5715 7.44578 8.5715 10.2859H9.42864ZM13.7144 7.28592C12.9187 7.28592 12.1556 7.60199 11.593 8.1646C11.0304 8.72721 10.7144 9.49027 10.7144 10.2859H9.85721C9.85721 9.26295 10.2636 8.28187 10.9869 7.55851C11.7103 6.83516 12.6914 6.42878 13.7144 6.42878V7.28592ZM13.7144 8.57164C13.2597 8.57164 12.8237 8.75225 12.5022 9.07374C12.1807 9.39523 12.0001 9.83127 12.0001 10.2859H11.1429C11.1429 9.60394 11.4138 8.94989 11.8961 8.46765C12.3783 7.98541 13.0324 7.7145 13.7144 7.7145V8.57164ZM9.85721 14.5716C7.49021 14.5716 5.5715 12.6529 5.5715 10.2859H4.71436C4.71436 13.1261 7.01707 15.4288 9.85721 15.4288V14.5716ZM6.85721 10.2859C6.85721 11.0816 7.17328 11.8446 7.73589 12.4072C8.2985 12.9699 9.06156 13.2859 9.85721 13.2859V14.1431C8.83423 14.1431 7.85316 13.7367 7.1298 13.0133C6.40645 12.29 6.00007 11.3089 6.00007 10.2859H6.85721ZM8.14293 10.2859C8.14293 10.7406 8.32354 11.1766 8.64503 11.4981C8.96652 11.8196 9.40256 12.0002 9.85721 12.0002V12.8574C9.17523 12.8574 8.52117 12.5864 8.03894 12.1042C7.5567 11.622 7.28578 10.9679 7.28578 10.2859H8.14293ZM14.1429 9.85735C16.5099 9.85735 18.4286 11.7761 18.4286 14.1431H19.2858C19.2858 11.3029 16.9831 9.00021 14.1429 9.00021V9.85735ZM17.1429 14.1431C17.1429 13.3474 16.8269 12.5844 16.2642 12.0217C15.7016 11.4591 14.9386 11.1431 14.1429 11.1431V10.2859C15.1659 10.2859 16.147 10.6923 16.8703 11.4157C17.5937 12.139 18.0001 13.1201 18.0001 14.1431H17.1429ZM15.8572 14.1431C15.8572 13.6884 15.6766 13.2524 15.3551 12.9309C15.0336 12.6094 14.5976 12.4288 14.1429 12.4288V11.5716C14.8249 11.5716 15.479 11.8426 15.9612 12.3248C16.4434 12.807 16.7144 13.4611 16.7144 14.1431H15.8572ZM11.5715 14.1431C11.5715 14.5977 11.3909 15.0338 11.0694 15.3552C10.7479 15.6767 10.3119 15.8574 9.85721 15.8574V16.7145C10.5392 16.7145 11.1933 16.4436 11.6755 15.9613C12.1577 15.4791 12.4286 14.8251 12.4286 14.1431H11.5715ZM12.8572 14.1431C12.8572 14.9387 12.5411 15.7018 11.9785 16.2644C11.4159 16.827 10.6529 17.1431 9.85721 17.1431V18.0002C10.8802 18.0002 11.8613 17.5938 12.5846 16.8705C13.308 16.1471 13.7144 15.166 13.7144 14.1431H12.8572ZM9.85721 18.4288C12.2242 18.4288 14.1429 16.5101 14.1429 14.1431H15.0001C15.0001 16.9832 12.6974 19.2859 9.85721 19.2859V18.4288Z" fill="white"/>
</g>
<defs>
<clipPath id="clip0_31_9013">
<rect width="24" height="24" fill="white"/>
</clipPath>
</defs>
</svg>

<svg xmlns="http://www.w3.org/2000/svg" width="24" height="24" fill="none" viewBox="0 0 24 24"><g clip-path="url(#a)"><path fill="#E9570F" d="M0 0h24v24H0z"/><path fill="#fff" d="M9.429 10.286A4.286 4.286 0 0 1 13.714 6v-.857a5.143 5.143 0 0 0-5.142 5.143zm4.285-3a3 3 0 0 0-3 3h-.857a3.857 3.857 0 0 1 3.857-3.857zm0 1.286A1.714 1.714 0 0 0 12 10.286h-.857a2.57 2.57 0 0 1 2.571-2.571zm-3.857 6a4.286 4.286 0 0 1-4.285-4.286h-.858a5.143 5.143 0 0 0 5.143 5.143zm-3-4.286a3 3 0 0 0 3 3v.857A3.857 3.857 0 0 1 6 10.286zm1.286 0A1.714 1.714 0 0 0 9.857 12v.857a2.57 2.57 0 0 1-2.571-2.571zm6-.429a4.286 4.286 0 0 1 4.286 4.286h.857A5.143 5.143 0 0 0 14.143 9zm3 4.286a3 3 0 0 0-3-3v-.857A3.857 3.857 0 0 1 18 14.143zm-1.286 0a1.714 1.714 0 0 0-1.714-1.714v-.857a2.57 2.57 0 0 1 2.571 2.571zm-4.285 0a1.714 1.714 0 0 1-1.715 1.714v.858a2.57 2.57 0 0 0 2.572-2.572zm1.285 0a3 3 0 0 1-3 3V18a3.857 3.857 0 0 0 3.857-3.857zm-3 4.286a4.286 4.286 0 0 0 4.286-4.286H15a5.143 5.143 0 0 1-5.143 5.143z"/></g><defs><clipPath id="a"><path fill="#fff" d="M0 0h24v24H0z"/></clipPath></defs></svg>
